X:1
T:Come, Ye Sinners, Poor and Needy
T:Text: Joseph Hart (1712-1768); Refrain, Anonymous Tune: Walker's Southern Harmony
T:87 87 Refrain RESTORATION www.hymnary.org/text/come_ye_sinners_poor_and_needy_weak_and
T:Come, Ye Sinners, Poor and Needy
T:This hymn is in the public domain.  You may freely use this score for personal and congregational worship.  If you reproduce the score, please credit Hymnary.org as the source. 
T:This hymn is in the public domain.  You may freely use this score for personal and congregational worship.  If you reproduce the score, please credit Hymnary.org as the source. 
Z:This hymn is in the public domain.  You may freely use this score for personal and congregational worship.  If you reproduce the score, please credit Hymnary.org as the source.
%%score ( 1 2 ) ( 3 4 )
L:1/8
M:4/4
K:Ab
V:1 treble nm="Piano" snm="Pno."
V:2 treble 
V:3 bass nm="Piano" snm="Pno."
V:4 bass 
V:1
 F2 A2 F2 EF | A2 A2 FE C2 | [CE]2 [CE]2 [DF]2 [CE][DF] | [EA]2 [EB]2 [Ec]4 | %4
w: 3~Come ye wea- ry, _|hea- vy- la- * den,|Lost and ru- ined _|by the fall;|
w: 1~Come ye sin- ners, _|poor and nee- * dy,|Weak and woun- ded, _|sick and sore;|
w: 2~Come, ye thir- sty, _|come and wel- * come,|God's free boun- ty _|glo- ri- fy;|
 [Ec]2 [Ae]2 cB [FA]2 | [EB]2 [Ec]2 AF [CE]2 | [CF]3 [CA] [DF][CE][A,C][G,B,] | %7
w: If you tar- * ry|till you're bet- * ter,|You will ne- * ver _|
w: Je- sus read- * y|stands to save _ you,|Full of pi- * ty, _|
w: True be- lief _ and|true re- pen- * tance,|Ev'- ry grace _ that _|
 [A,C]2 [C=E]2 [CF]4 ||"^Chorus" F2 AA F2 EF | A2 A2 FE C2 | [CE]2 [CE][CE] [DF]2 [CE][DF] | %11
w: come at all.|I will a- rise and _|go to Je- * sus,|He will em- brace me _|
w: love and pow'r.||||
w: brings you nigh.||||
 [EA]2 [EB]2 [Ec]4 | [Ec]2 [Ae]2 cB [FA]2 | [EB]2 [Ec]2 AF [CE]2 | [CF]3 [CA] [DF][CE][A,C][G,B,] | %15
w: in His arms;|In the arms _ of|my dear Sa- * vior,|O there are _ ten _|
w: ||||
w: ||||
 [A,C]2 [C=E]2 [CF]4 |] %16
w: thou- sand charms.|
w: |
w: |
V:2
 F2 A2 F2 EF | A2 A2 FE C2 | x8 | x8 | x4 G2 x2 | x4 C2 x2 | x8 | x8 || F2 AA F2 EF | A2 A2 FE C2 | %10
 x8 | x8 | x4 G2 x2 | x4 C2 x2 | x8 | x8 |] %16
V:3
 F,2 A,2 F,2 E,F, | A,2 A,2 F,E, C,2 | [A,,A,]2 [A,,A,]2 [A,,A,]2 [A,,A,]2 | [C,A,]2 [E,G,]2 A,4 | %4
 A,2 [A,C]2 [=E,C]2 [F,C]2 | [G,B,]2 A,2 A,2 A,2 | [F,A,]3 [F,A,] A,2 A,F, | %7
 [C,F,]2 [C,G,]2 [F,A,]4 || F,2 A,A, F,2 E,F, | A,2 A,2 F,E, C,2 | %10
 [A,,A,]2 [A,,A,][A,,A,] [A,,A,]2 [A,,A,]2 | [C,A,]2 [E,G,]2 A,4 | A,2 [A,C]2 [=E,C]2 [F,C]2 | %13
 [G,B,]2 A,2 A,2 A,2 | [F,A,]3 [F,A,] A,2 A,F, | [C,F,]2 [C,G,]2 [F,A,]4 |] %16
V:4
 F,2 A,2 F,2 E,F, | A,2 A,2 F,E, C,2 | x8 | x4 A,4 | A,2 x6 | x2 A,2 F,C, A,2 | x4 D,E, F,2 | x8 || %8
 F,2 A,A, F,2 E,F, | A,2 A,2 F,E, C,2 | x8 | x4 A,4 | A,2 x6 | x2 A,2 F,C, A,2 | x4 D,E, F,2 | %15
 x8 |] %16

